X:14
T:Flowers of Edinburgh
R:Reel
O:Scotland
O:Ireland
M:2/4
L:1/16
K:G
"G"GE|D2DE G2GA|BGBd cBAG|"D7"FGFE DEFG|ABAF E2GE|
"G"D2DE G2GA|"G"BABd "C"efge|"D7"dcBA GFGA|"G"B2G2 G2:|
|:"G"Bd|"G"g2gf gbag|"D7"f2fe fagf|"C"edef gfed|"Em"B2e2 e2ge|
"G"dBGB d2dd|"C"edef "Am"g2fe|"D7"dcBA GFGA|"G"B2G2 G2:|
